X:1
T:Life at Best Is Very Brief
T:Life at Best Is Very Brief
T:William James Kirkpatrick, 1885
T:Anonymous, before 1893
T:Public Domain Courtesy of the Cyber Hymnal™
T:Public Domain Courtesy of the Cyber Hymnal™
C:William James Kirkpatrick, 1885
Z:Public Domain
Z:Courtesy of the Cyber Hymnal™
%%score ( 1 2 ) ( 3 4 )
L:1/8
Q:1/4=95
M:4/4
K:E
V:1 treble 
V:2 treble 
V:3 bass 
V:4 bass 
V:1
 [B,E]>[B,F] | [EG]>[EG] [EG]>[EG] [EG]2 [B,E]>[EG] | [GB]>[GB] [GB]>[GB] [GB]2 [EB]>[EB] | %3
w: 1.~Life at|best is ve- ry brief, Like the|fall- ing of a leaf, Like the|
w: 2.~Fair- est|flow- ers soon de- cay, Youth and|beau- ty pass a- way, Oh, you|
w: 3.~Time is|glid- ing swift- ly by, Death and|judg- ment draw- eth nigh, To the|
w: 4.~Sin- ner,|heed the warn- ing voice, Make the|Lord your fin- al choice, Then all|
 [Ac]>[Ac] [Ac]>[Ac] (c<e) [GB]>[EG] | [DF]6 [EG]>[FA] | [GB]>[GB] [GB]>[GB] [GB]2 [EB]>[EB] | %6
w: bind- ing of a sheaf, * Be in|time. Fleet- ing|days are tell- ing fast That the|
w: have not long to stay, * Be in|time. While God’s|Spir- it bids you come, Sin- ner,|
w: arms of Je- sus fly, * Be in|time. Oh, I|pray you count the cost, Ere the|
w: Hea- ven will re- joice, * Be in|time. Come from|dark- ness in- to light, Come, let|
 [Ac]>[Ac] [Ac]>[Ac] (c<e) E>[DF] | [EG]>[EG] [EG]>[EG] (G<B) [DF]>[DG] [B,E]6 ||"^Refrain" B>B | %9
w: die will soon be cast, * And the|fa- tal line be passed, * Be in time.||
w: do no long- er roam, * Lest you|seal your help- less doom, * Be in time.||
w: fa- tal line be crossed, * And your|soul in hell be lost, * Be in time.|~ ~|
w: Je- sus make you right, * Come, and|start for Heav’n to- night, * Be in time.||
 z2 x10 | z2 [Bd]>[Ac] x6 | [GB]>[GB] [GB]>[GB] [Ac]<[GB] [GB]>[EG] | [DF]6 [EG]>[FA] | %13
w: ||||
w: ||||
w: |Be in|time, ~ ~ ~ ~ Be in time,|While the voice|
w: ||||
 [GB]>[GB] [GB]>[GB] [GB]2 [EB]>[EB] | [Ac]>[Ac] [Ac]>[Ac] (c<e) E>[DF] | %15
w: ||
w: ||
w: of Je- sus calls you, Be in|time. If in sin you * long- er|
w: ||
 [EG]>[EG] [EG]>[EG] (G<B) [DF]>[DG] | [B,E]6 |] %17
w: ||
w: ||
w: wait, You may find no * o- pen|gate,|
w: ||
V:2
 x2 | x8 | x8 | x4 A3 x | x8 | x8 | x4 A2 x2 | x4 E2 x8 || B>B | B6 G>G G2 (3(cB)G | e6 G>G G2 | %11
 x8 | x8 | x8 | x4 A2 x2 | x4 E2 x2 | x6 |] %17
V:3
 [E,G,]>[E,A,] | [E,B,]>[E,B,] [E,B,]>[E,B,] [E,B,]2 [E,G,]>[E,B,] | %2
 [E,E]>[E,E] [E,E]>[E,E] [E,E]2 [G,B,]>[G,B,] | [A,E]>[A,E] [A,E]>[A,E] (E<C) [E,E]>[E,B,] | %4
 [B,,B,]6 [E,B,]>[E,B,] | [E,E]>[E,E] [E,E]>[E,E] [E,E]2 [G,B,]>[G,B,] | %6
 [A,E]>[A,E] [A,E]>[A,E] (E<C) [G,B,]>[G,B,] | %7
 [E,B,]>[E,B,] [E,B,]>[E,B,] (B,<G,) [B,,A,]>[B,,B,] [E,G,]6 || z2 | %9
 z2 ([E,E]>[E,E] [E,E]2) z2 x4 | z2 ([E,B,]>[E,B,] [E,B,]2) [E,B,]>[E,B,] x2 | %11
 [E,E]>[E,E] [E,E]>[E,E] [E,E]<[E,E] [E,E]>[E,B,] | ([B,,B,]2 B,>B,B,A,) [G,B,]>[F,B,] | %13
 [E,E]>[E,E] [E,E]>[E,E] [E,E]2 [G,B,]>[G,B,] | [A,E]>[A,E] [A,E]>[A,E] (E<C) [G,B,]>[F,B,] | %15
 [E,B,]>[E,B,] [E,B,]>[E,B,] (B,<G,) [B,,A,]>[B,,B,] | [E,G,]6 |] %17
V:4
 x2 | x8 | x8 | x4 A,2 x2 | x8 | x8 | x4 A,2 x2 | x4 B,,2 x8 || x2 | x12 | x10 | x8 | x8 | x8 | %14
 x4 A,2 x2 | x4 B,,3 x | x6 |] %17

